assets/images/logo.svg

<svg height="32" viewBox="0 0 33 32" width="33" xmlns="http://www.w3.org/2000/svg" xmlns:xlink="http://www.w3.org/1999/xlink"><linearGradient id="a" x1="0%" x2="92.288745%" y1="91.220947%" y2=".942898%"><stop offset="0" stop-color="#1764ff"/><stop offset=".483091128" stop-color="#16cde5"/><stop offset="1" stop-color="#b4ffa4"/></linearGradient><linearGradient id="b" x1="4.752879%" x2="79.627672%" y1="83.311954%" y2="22.101209%"><stop offset="0" stop-color="#1764ff"/><stop offset=".483091128" stop-color="#16cde5"/><stop offset="1" stop-color="#99f6af"/></linearGradient><g fill="none" fill-rule="evenodd"><ellipse cx="16.793242" cy="15.592058" fill="#000" fill-rule="nonzero" rx="15.655311" ry="15.592058"/><g transform="matrix(.92050484657 .39073113108 -.39073113108 .92050484657 12.49980013073 5.6855595297)"><path d="m13.1657896 2.17886403c-1.2874426-1.34252734-3.1025-2.17886403-5.11368666-2.17886403-3.90484847 0-7.07035357 3.15271519-7.07035357 7.04178648 0 2.02509868.85830887 3.85053862 2.23237925 5.13515632m3.84321935 1.7981598c.31336169.0482171.67593697.1084704.99475497.1084704 3.90484846 0 7.07035356-3.1527153 7.07035356-7.04178652 0-1.36930618-.3662453-3.10227411-1.063295-3.86887824" stroke="url(#a)" stroke-width="2.66286"/><path d="m2.87854443 12.3645556c3.97389547.0080388 6.00289108.0121433 6.08698692.0123134.12614374.0002552.26377009.063392.38199369.1246717.07881572.0408532.17131948.1132448.27751129.2171747.30344714.0890602.52063147.1893257.65155287.3007965.1963822.1672061.2617775.3084305.2621197.4770907.0002265.1124401-.0408101.2222718-.123111.3294952-.0772352-.1282207-.1585763-.2152281-.2440232-.2610223-.1281703-.0686913-.20681632-.069634-.44415273-.0701141-.15822428-.0003201-.29405495.022477-.40749207.0683913l-2.91621691 1.039945-1.24971928 2.0257439c-.41568914.5355892-.84488843.9274368-1.2875979 1.175543-.66406416.3721593-1.02823741.3994669-1.68942903.4799727-.44079441.0536705-.90983704.0193571-1.40712787-.1029402.25145628.0386427.57146468-.061222.96002518-.299594.15198748-.0932405.52409375-.3168205.79837853-.7941416.2846216-.4953097.80671399-1.7241134 1.56627714-3.6864112z" fill="#176dfd" fill-rule="nonzero" transform="matrix(.7193398 -.69465837 .69465837 .7193398 -9.06693 8.232228)"/></g><path d="m8.34876819 19.3955571 16.37900371-16.16043275-17.37970113 11.63156945z" fill="url(#b)" fill-rule="nonzero" transform="matrix(.92050484657 .39073113108 -.39073113108 .92050484657 7.64306433971 -1.62722666417)"/></g></svg>

<?xml version="1.0" encoding="UTF-8"?>
<svg width="33px" height="32px" viewBox="0 0 33 32" version="1.1" xmlns="http://www.w3.org/2000/svg" xmlns:xlink="http://www.w3.org/1999/xlink">
    <title>横版01</title>
    <defs>
        <linearGradient x1="0%" y1="91.220947%" x2="92.2887449%" y2="0.942897746%" id="linearGradient-1">
            <stop stop-color="#1764FF" offset="0%"></stop>
            <stop stop-color="#16CDE5" offset="48.3091128%"></stop>
            <stop stop-color="#B4FFA4" offset="100%"></stop>
        </linearGradient>
        <linearGradient x1="4.75287891%" y1="83.3119541%" x2="79.6276717%" y2="22.1012088%" id="linearGradient-2">
            <stop stop-color="#1764FF" offset="0%"></stop>
            <stop stop-color="#16CDE5" offset="48.3091128%"></stop>
            <stop stop-color="#99F6AF" offset="100%"></stop>
        </linearGradient>
    </defs>
    <g id="页面-1" stroke="none" stroke-width="1" fill="none" fill-rule="evenodd">
        <g id="切图" transform="translate(-92.000000, -59.000000)">
            <g id="编组备份-5" transform="translate(92.000000, 59.000000)">
                <ellipse id="椭圆形" fill="#000000" fill-rule="nonzero" cx="16.7932424" cy="15.5920576" rx="15.6553113" ry="15.5920576"></ellipse>
                <g id="编组备份-12" transform="translate(16.532018, 18.106231) rotate(-7.000000) translate(-16.532018, -18.106231) translate(2.307881, 3.939565)">
                    <g id="编组-23" transform="translate(13.250681, 14.654139) rotate(30.000000) translate(-13.250681, -14.654139) translate(5.285164, 3.887472)">
                        <path d="M13.1657896,2.17886403 C11.878347,0.836336692 10.0632896,-1.46359961e-12 8.05210294,-1.46359961e-12 C4.14725447,-1.46359961e-12 0.981749371,3.15271519 0.981749371,7.04178648 C0.981749371,9.06688516 1.84005824,10.8923251 3.21412862,12.1769428 M7.05734797,13.9751026 C7.37070966,14.0233197 7.73328494,14.083573 8.05210294,14.083573 C11.9569514,14.083573 15.1224565,10.9308577 15.1224565,7.04178648 C15.1224565,5.6724803 14.7562112,3.93951237 14.0591615,3.17290824" id="形状备份" stroke="url(#linearGradient-1)" stroke-width="2.66286043"></path>
                        <path d="M2.87854443,12.3645556 C6.8524399,12.3725944 8.88143551,12.3766989 8.96553135,12.376869 C9.09167509,12.3771242 9.22930144,12.440261 9.34752504,12.5015407 C9.42634076,12.5423939 9.51884452,12.6147855 9.62503633,12.7187154 C9.92848347,12.8077756 10.1456678,12.9080411 10.2765892,13.0195119 C10.4729714,13.186718 10.5383667,13.3279424 10.5387089,13.4966026 C10.5389354,13.6090427 10.4978988,13.7188744 10.4155979,13.8260978 C10.3383627,13.6978771 10.2570216,13.6108697 10.1715747,13.5650755 C10.0434044,13.4963842 9.96475838,13.4954415 9.72742197,13.4949614 C9.56919769,13.4946413 9.43336702,13.5174384 9.3199299,13.5633527 L6.40371299,14.6032977 L5.15399371,16.6290416 C4.73830457,17.1646308 4.30910528,17.5564784 3.86639581,17.8045846 C3.20233165,18.1767439 2.8381584,18.2040515 2.17696678,18.2845573 C1.73617237,18.3382278 1.26712974,18.3039144 0.769838907,18.1816171 C1.02129519,18.2202598 1.34130359,18.1203951 1.72986409,17.8820231 C1.88185157,17.7887826 2.25395784,17.5652026 2.52824262,17.0878815 C2.81286422,16.5925718 3.33495661,15.3637681 4.09451976,13.4014703 L2.87854443,12.3645556 Z" id="路径-43" fill="#176DFD" fill-rule="nonzero" transform="translate(5.654274, 15.336834) rotate(-44.000000) translate(-5.654274, -15.336834) "></path>
                    </g>
                    <polygon id="路径-34备份-2" fill="url(#linearGradient-2)" fill-rule="nonzero" transform="translate(16.037921, 11.315341) rotate(30.000000) translate(-16.037921, -11.315341) " points="8.34876819 19.3955571 24.7277719 3.23512435 7.34807077 14.8666938"></polygon>
                </g>
            </g>
        </g>
    </g>
</svg>
